X:1
T:Give Praise
T:Ira Bishop Wilson
T:Give Praise
T:Public Domain
T:Public Domain
C:Ira Bishop Wilson
Z:Public Domain
%%score ( 1 2 ) ( 3 4 )
L:1/8
M:4/4
K:D
V:1 treble 
V:2 treble 
V:3 bass 
V:4 bass 
V:1
 A>A | d3 A FG A>B | A2 F2 D2 [Fd]2 | [Ec]6 [Ge]2 | [Fd]6 A>A | d3 A FG A>B | A2 F2 D2 [Fd]2 | %7
w: 1.~Come be-|ho- vah with a joy- ful|your voice in glad-|clear and|strong, Your an-|Cast your bur- den from you—|God’s love a- round|
w: 2.~Feel you|glad- ness in this world of|you not the beau-|bloom- ing|flow’rs, The chang-|God His gifts has boun- ti-|have but to take|
w: 3.~Chant no|sor- row, leave the mi- nor|God’s grace and good-|spir- it|be In bright-|And your song shall e- cho|ing some- one’s heart-|
 [Ec]6 [DB]2 | [CA]6 [CE]>[DF] | [EG]2 [FA]2 [Ac]>[GB] [FA]>[EG] | [DF]2 [GB]2 [FA]2 E>[^DF] | %11
w: peace with-|in; Come be-|fore Je- ho- vah with a|joy- ful song, Give praise,|
w: lift your|head; Feel you|not the glad- ness in this|world of ours? ’Tis here,|
w: some- one’s|tears; Chant no|wail of sor- row, leave the|mi- nor key; Be glad,|
 [EG]2 [EA]2 [Ec]>[GB] [FA]>[EG] | [DF]2 [GB]2 [FA]2 A>[GA] | [Fd]3 [Fd] A=A [F^A]>[EA] | %14
w: praise. * * * * *|||
w: here! * * * * *|||
w: glad! * * * * *|||
 [DB]2 [Gc]2 [Ad]2 [Ge]2 | [Fd]6 [Ec]2 | [Fd]6 |] %17
w: |||
w: |||
w: |||
V:2
 A>A | d3 A FG A>B | A2 F2 D2 x2 | x8 | x6 A>A | d3 A FG A>B | A2 F2 D2 x2 | x8 | x8 | x8 | %10
w: fore Je-|song, Give praise, give praise! Lift|ness, sweet and||them raise.|all your load of sin; Know|you and His||||
w: not the|ours? ’Tis here, ’tis here! See|ty of the||ing year?|ful- ly round you spread, You|them; mourn- er,||||
w: wail of|key; Be glad, be glad! Sing|ness, let your||ness clad.|down the trou- bled years, Eas-|ache, dry- ing||||
 x6 E3/2 x/ | x8 | x6 A3/2 x/ | x4 ^A^A x2 | x8 | x8 | x6 |] %17
w: give|||||||
w: ’tis|||||||
w: be|||||||
V:3
 A,>A, | D3 A, F,G, A,>B, | A,2 F,2 D,2 z2 | z2 A,2 A,2 z2 | z2 [D,A,]2 [D,A,]2 A,>A, | %5
 D3 A, F,G, A,>B, | A,2 F,2 D,2 z2 | z2 [E,A,]2 [E,^G,]2 [E,G,]2 | [A,,A,]6 [A,,A,]>[A,,A,] | %9
 [A,,A,]2 [A,,A,]2 [A,,A,]>[A,,A,] [A,,A,]>[A,,A,] | [D,A,]2 [D,D]2 [D,D]2 [G,B,]>[F,B,] | %11
 [E,B,]2 [C,A,]2 [A,,A,]>[A,,A,] [B,,A,]>[C,A,] | [D,A,]2 [D,D]2 [D,D]2 A,>[A,C] | %13
 B,3 B, [F,D][F,D] [F,C]>[F,C] | [G,B,]2 [E,A,]2 [F,A,]2 [G,B,]2 | A,2 A,2 A,2 [A,,A,]2 | %16
 [D,A,]6 |] %17
V:4
 A,>A, | D3 A, F,G, A,>B, | A,2 F,2 D,2 x2 | x2 A,2 A,2 x2 | x6 A,>A, | D3 A, F,G, A,>B, | %6
 A,2 F,2 D,2 x2 | x8 | x8 | x8 | x8 | x8 | x6 A,3/2 x/ | B,3 B, x4 | x8 | A,2 A,2 A,2 x2 | x6 |] %17

